X: 20226
T: Joe Cashmere's Varsovienne
R: mazurka
M: 3/4
K: Gmajor
|:D>G B2 B2|d>G B2 B2|(3dBG A2 A2|(3cBA G>E D>B,|
D>G B2 B2|(3dBG B2 B2|(3dcB A2 A2|(3AdF G2 G2:|
|:B>d e2 e>f|g>e d2 d2|G>B d2 d>c|(3AdA B2 B2|
(3GBd e2 e>f|(3gfe d2 d2|G>B d>e d>c|A>F G4:|

